resources/contact-icon.svg

<svg enable-background="new 0 0 16 16" viewBox="0 0 16 16" xmlns="http://www.w3.org/2000/svg" xmlns:xlink="http://www.w3.org/1999/xlink"><linearGradient id="a" gradientUnits="userSpaceOnUse" x1="3.5853" x2="12.4147" y1=".3536" y2="15.6464"><stop offset="0" stop-color="#651916"/><stop offset=".2954" stop-color="#661b19"/><stop offset=".5005" stop-color="#692222"/><stop offset=".6784" stop-color="#6f2e31"/><stop offset=".8396" stop-color="#773f47"/><stop offset=".99" stop-color="#815463"/><stop offset="1" stop-color="#825665"/></linearGradient><path d="m8 10c-.3 0-.5-.1-1-.3l-7-3.7v7c0 .6.4 1 1 1h14c.6 0 1-.4 1-1v-7l-7 3.7c-.5.2-.7.3-1 .3zm7-8h-14c-.6 0-1 .5-1 1v.8l8 4.2 8-4.2v-.8c0-.5-.4-1-1-1z" fill="url(#a)"/></svg>

<?xml version="1.0" encoding="utf-8"?>
<!-- Generator: Adobe Illustrator 22.0.1, SVG Export Plug-In . SVG Version: 6.00 Build 0)  -->
<svg version="1.1" id="Layer_1" xmlns="http://www.w3.org/2000/svg" xmlns:xlink="http://www.w3.org/1999/xlink" x="0px" y="0px"
	 viewBox="0 0 16 16" style="enable-background:new 0 0 16 16;" xml:space="preserve">
<style type="text/css">
	.st0{fill:url(#SVGID_1_);}
</style>
<linearGradient id="SVGID_1_" gradientUnits="userSpaceOnUse" x1="3.5853" y1="0.3536" x2="12.4147" y2="15.6464">
	<stop  offset="0" style="stop-color:#651916"/>
	<stop  offset="0.2954" style="stop-color:#661B19"/>
	<stop  offset="0.5005" style="stop-color:#692222"/>
	<stop  offset="0.6784" style="stop-color:#6F2E31"/>
	<stop  offset="0.8396" style="stop-color:#773F47"/>
	<stop  offset="0.99" style="stop-color:#815463"/>
	<stop  offset="1" style="stop-color:#825665"/>
</linearGradient>
<path class="st0" d="M8,10c-0.3,0-0.5-0.1-1-0.3L0,6v7c0,0.6,0.4,1,1,1h14c0.6,0,1-0.4,1-1V6L9,9.7C8.5,9.9,8.3,10,8,10z M15,2H1
	C0.4,2,0,2.5,0,3v0.8L8,8l8-4.2V3C16,2.5,15.6,2,15,2z"/>
</svg>
